svg/fluentui-system-icons/ic_fluent_window_dev_tools_16_regular.svg

<svg width="16" height="16" viewBox="0 0 16 16" fill="none" xmlns="http://www.w3.org/2000/svg">
<path d="M4.5 2.00098C3.11929 2.00098 2 3.12026 2 4.50098V10.501C2 11.8817 3.11929 13.001 4.5 13.001H8.78103C8.81357 12.7852 8.88625 12.5717 9.00196 12.3713L9.21579 12.001H4.5C3.67157 12.001 3 11.3294 3 10.501V4.99977H12V6.19357C12.3181 6.06789 12.6569 5.99852 13 5.98976V4.50098C13 3.12026 11.8807 2.00098 10.5 2.00098H4.5ZM3.08398 3.99976C3.2899 3.41716 3.84552 2.99976 4.49863 2.99976H10.4986C11.1517 2.99976 11.7074 3.41716 11.9133 3.99976H3.08398ZM10.4158 7.70931L8.85368 6.14718C8.65841 5.95192 8.34183 5.95192 8.14657 6.14718C7.95131 6.34244 7.95131 6.65902 8.14657 6.85429L9.79302 8.50073L8.14657 10.1472C7.95131 10.3424 7.95131 10.659 8.14657 10.8543C8.34183 11.0495 8.65841 11.0495 8.85368 10.8543L10.2217 9.48625C10.1015 8.90403 10.1581 8.28275 10.4158 7.70931ZM6.85294 6.14718C7.04821 6.34244 7.04821 6.65902 6.85294 6.85429L5.2065 8.50074L6.85294 10.1472C7.04821 10.3424 7.04821 10.659 6.85294 10.8543C6.65768 11.0495 6.3411 11.0495 6.14584 10.8543L4.14584 8.85429C4.05207 8.76052 3.99939 8.63334 3.99939 8.50074C3.99939 8.36813 4.05207 8.24095 4.14584 8.14718L6.14584 6.14718C6.3411 5.95192 6.65768 5.95192 6.85294 6.14718ZM12.5215 8.58034L13.4219 7.02086C12.6481 6.87662 11.8336 7.22358 11.4176 7.94406C11.0307 8.61415 11.096 9.42123 11.5189 10.012L9.86799 12.8713C9.64822 13.252 9.77864 13.7387 10.1593 13.9585C10.5399 14.1783 11.0267 14.0478 11.2465 13.6672L12.9007 10.8019C13.6184 10.866 14.3419 10.5192 14.7259 9.85411C15.1416 9.13413 15.0353 8.25602 14.5244 7.65802L13.6243 9.21703C13.4485 9.52155 13.0591 9.62588 12.7546 9.45007C12.45 9.27425 12.3457 8.88486 12.5215 8.58034Z" fill="#212121"/>
</svg>

<svg xmlns="http://www.w3.org/2000/svg" width="16" height="16"><path d="M4.5 2.001a2.5 2.5 0 0 0-2.5 2.5v6a2.5 2.5 0 0 0 2.5 2.5h4.281c.033-.216.105-.43.221-.63l.214-.37H4.5a1.5 1.5 0 0 1-1.5-1.5V5h9v1.194a2.926 2.926 0 0 1 1-.204V4.5A2.5 2.5 0 0 0 10.5 2h-6ZM3.084 4a1.5 1.5 0 0 1 1.415-1h6a1.5 1.5 0 0 1 1.414 1H3.084Zm7.332 3.71L8.854 6.146a.5.5 0 0 0-.707.707L9.793 8.5l-1.646 1.646a.5.5 0 1 0 .707.707l1.368-1.368a2.898 2.898 0 0 1 .194-1.777ZM6.853 6.146a.5.5 0 0 1 0 .707L5.207 8.501l1.646 1.646a.5.5 0 1 1-.707.707l-2-2a.5.5 0 0 1 0-.707l2-2a.5.5 0 0 1 .707 0ZM12.52 8.58l.9-1.56a1.91 1.91 0 0 0-1.902 2.992l-1.651 2.86a.796.796 0 0 0 1.378.795l1.655-2.865a1.91 1.91 0 0 0 1.623-3.144l-.9 1.559a.637.637 0 1 1-1.103-.637Z"/></svg>
